X:343
T:Old Tennessee River
C:Bill Monroe - Mike Compton solo
N:Transcribed by Mike Stangeland
R:bluegrass
L:1/8
Q:1/4=206
M:4/4
K:E
"Bill Monroe intr"z2 B,=D EA (3[eB][eB][eB] | (3[eB][eB][eB] [e2B2] [eB]=G FE | 
(3B,B,B, B,2 =G,A, B,=D | (3[BE][BE][BE] (3[BE][BE][BE] (3[BE][BE][BE] (3[BE][BE][BE] | 
[B4E4] B=d Bd | "Jimmy Campbell f""E"^AB z=A B=d Bd | E3=D E=G EG | "D"=D2 {F}=G2 GF ED | 
"E"B,3A B=d Bd | ^AB z=A B=d Bd | E2 B,C EG Ae | "B7"B3B {c}=dB cd | B3A B=d Bd | 
"E"^AB z=A B=d Bd | E3=D E=G EG | "D"=D2 {F}=G2 GF ED | "E"B,4 B,C EG | (3BBB (3BBB (3BBB ^AB | 
"B7"A=G E=D GE DB, | (3"E"EEE (3EEE E=D E=G | E2 BB B=d Bd | =de ee =ge g2 | e=d Bd A=G EG | 
(3BBB (3BBB A=G EG | E=D BB B=d Bd | =de ee =ge g2 | e=d BG EG Ae | "B7"B2 BB {c}=dB cd | 
B3B B=d Bd | "E"=de (3eee de (3eee | =ge ze zg e=d | B3=d A=G E=D | E=D B,D EG B=d | 
"B7"^AB (3BBB (3BBB BA | A=G E=D G^G EC | (3"E"EEE (3EEE E=D EF | E2 E=D Bc BG | 
E4 AB AF | "D"=D4 Bc BG | "E"E2 E=D B,C EB | =G^G zA Bc BG | E4 AB AF | "D"=D4 B,C EG | 
"B7"B3=d ^dB cd | B3A B=d Bd | "E"^AB z=A B=d Bd | E3=D E=G EG | "D"=D2 {F}=G2 GF ED | 
"E"B,4 B,C EG | (3BBB (3BBB (3BBB ^AB | "B7"A=G E=D GE DB, | (3"E"EEE (3EEE E=D E=G | 
E8 | "Monroe mandolin "A[eB] [eB][eB] [eB]=d Bd | E3E E=G EG | "D"=D2 DD EF EF | 
"E"B,B, B,=D EE E2 | [BG][BG] [BG][BG] z[BG] [B2G2] | [BE][BE] [BE][A=D] [BE][BE] A2 | 
"B7"[BF][BF] [BF][BF] [BF][BF] [B2F2] | [B2F2] [BF][BF] z[BF] [B2F2] | "E"A[eB] [eB][eB] [eB]=d BA | 
E3E E=G EG | "D"=D2 DD EF EF | "E"B,2 B,=D ED ED | [BG][BG] [B2G2] [BG][BG] [BG][BG] | 
"B7"[B2F2] [BF][BF] DF =DC | "E"[B2E2B,2] [BEB,][B2E2B,2][BEB,] [BEB,][BEB,] | 
[B2E2B,2] [BEB,][B3E3B,3] [eB][eB] | ce ze ee e2 | Be e{f}=g fe cA | B2 B{F}=G {F}GE EB, | 
B,2 [B2E2B,2] BB B=d | e[ee] [ee][ee] [ee][ee] [ee][ee] | =g[ee] [ee][ee] [ee][ee] ec | 
"B7"B2 [BF][BF] [BF][BF] [BF][BF] | [B2F2] [BF][BF] [=dF][BF] Bd | "E"ee ee ee ee | 
e2 e2 B2 =d2 | =GF E2 [EB,][EB,] [EB,]=D | [E2B,2] [E2B,2] [EB,][EB,] [EB,][EB,] | 
[BG][BG] [BG][B2G2][BG] F=D | "B7"[BE][BF] [B2F2] [BF][BF] [B2F2] | "E"[EB,][EB,] [EB,][EB,] [EB,][EB,] [EB,][EB,] | 
[E4B,4] Bc BG | "Campbell finishe""."E4 AB AF | "D"=D4 Bc BG | "E"E2 E=D B,C EB | 
=G^G2A Bc BG | E4 AB AF | "D"=D4 B,C EG | "B7"B3=d ^dB cd | B3A B=d Bd | "E"^AB z=A B=d Bd | 
E3=D E=G EG | "D"=D2 {F}=G2 GF ED | "E"B,4 B,C EG | (3BBB (3BBB (3BBB ^AB | "B7"A=G E=D GE DB, | 
(3"E"EEE (3EEE E=D E=G | E8 | 


